X: 20692
T: The Retreat
%R: march
B: James Oswald "The Caledonian Pocket Companion" v.2 p.69 #2
Z: 2019 John Chambers <jc:trillian.mit.edu>
M: C
L: 1/8
K: Dmix
%%slurgraces 1
%%graceslurs 1
|:"_Slow"\
d<d f>d e>dB>d | A<A F>A B2 d2 |\
D<D F>D f>de>d | D<D F>A B2 d2 ::\
a<a f>d e<e d>B | A<AF>A B2 d2 |
F<F E>D f<f Te>d | F<F A>f B2 d2 ::\
(f2 e2) (d2 B2) | a<a f>A B2 d2 |\
b<b a>f g>ef>d | D<D F>A B2 d2 :|


